X: 139
T: No_222_Ball_Game_Song_(e).krn
N: Derived from No_222_Ball_Game_Song_(e).krn
%%abc-version 2.0
%%abcx-abcm2ps-target-version 5.9.1 (29 Sep 2008)
%%abc-creator hum2abc beta
%%abcx-conversion-date 2019/03/15 08:38:45
%%humdrum-veritas 1612370677
%%humdrum-veritas-data 704058185
%%linebreak <none>
%%barnumbers 0
L: 1/8
M: 2/4
K: F clef=bass
[K:clef=bass][M:2/4]C/C/C A,C [I:setbarnb 2]||  
[M:3/4]A,/A,/G,(F,2C,) z ||  
[M:2/4]C/C/C A,G, ||  
[M:3/4]F,/F,/G,(F,2C,) z | 
[M:2/4]C,F, F,A, ||  
[M:3/4]A,G,(F,2C,) z :|]  



